X: 1
T: Greenholm
B: Kerr's Violin IV
Z: John Chambers <jc:trillian.mit.edu>
R: jig
M: 6/8
L: 1/8
K: G
e \
| "G"d>BG GBd | "C"efg g2e | "G"d>BG "Em"GAB | "Am"A3 "D7"A2d |\
| "G"d>BG GBd | "C"efg g2e | "G"d>BG "D7"ABA |  "G"G3- G2 ||
B/c/ \
| "G"d2g  gfg | "C"e2g gfg | "G"d>BG "Em"GAB | "Am"A3 "D7"A2d |\
| "G"d>BG GBd | "C"efg g2e | "G"d>BG "D7"ABA |  "G"G3- G2 |]
